src/assets/icons/pay.svg

<svg width="20" height="20" viewBox="0 0 24 24" fill="none" xmlns="http://www.w3.org/2000/svg"><path d="M19.2587 5.02051C20.7228 5.02051 21.92 6.1618 22.0067 7.60205L22.0117 7.76951V16.2715C22.0117 17.7335 20.8687 18.9289 19.4264 19.0155L19.2587 19.0205H4.76477C3.30062 19.0205 2.10342 17.8792 2.01674 16.439L2.01172 16.2715V7.76951C2.01172 6.30751 3.15469 5.11207 4.59706 5.02552L4.76477 5.02051H19.2587ZM20.5092 10.9923H3.51238L3.51338 16.2715C3.51338 16.9185 4.0058 17.4506 4.63682 17.5146L4.76477 17.5211H19.2587C19.9066 17.5211 20.4395 17.0294 20.5036 16.3993L20.5101 16.2715L20.5092 10.9923ZM18.2716 14.4964C18.6863 14.4964 19.0224 14.832 19.0224 15.2461C19.0224 15.6256 18.74 15.9393 18.3735 15.989L18.2716 15.9958H15.7688C15.3541 15.9958 15.018 15.6601 15.018 15.2461C15.018 14.8665 15.3005 14.5528 15.6669 14.5032L15.7688 14.4964H18.2716ZM19.2587 6.51996H4.76477C4.11684 6.51996 3.58393 7.01166 3.51984 7.64175L3.51338 7.76951L3.51238 9.49288H20.5092L20.5101 7.76951C20.5101 7.12254 20.0176 6.5904 19.3866 6.52641L19.2587 6.51996Z" fill="currentColor"></path></svg>

<svg xmlns="http://www.w3.org/2000/svg" width="20" height="20" fill="none" viewBox="0 0 24 24"><path fill="currentColor" d="M19.259 5.02a2.752 2.752 0 0 1 2.748 2.582l.005.168v8.502a2.75 2.75 0 0 1-2.586 2.744l-.167.005H4.765a2.751 2.751 0 0 1-2.748-2.582l-.005-.168V7.77a2.75 2.75 0 0 1 2.585-2.744l.168-.005h14.494Zm1.25 5.972H3.512l.001 5.28c0 .647.493 1.179 1.124 1.243l.128.006h14.494a1.25 1.25 0 0 0 1.245-1.122l.006-.128v-5.279Zm-2.237 3.504a.75.75 0 0 1 .102 1.493l-.102.007h-2.503a.75.75 0 0 1-.102-1.493l.102-.007h2.503Zm.987-7.976H4.765A1.25 1.25 0 0 0 3.52 7.642l-.007.128v1.723h16.996l.001-1.723a1.25 1.25 0 0 0-1.123-1.244l-.128-.006Z"/></svg>
